src/img/standarts-list__only.svg

<svg
 xmlns="http://www.w3.org/2000/svg"
 xmlns:xlink="http://www.w3.org/1999/xlink"
 width="94px" height="68px">
<path fill-rule="evenodd"  fill="rgb(132, 171, 49)"
 d="M93.596,11.248 C93.324,11.514 92.935,11.517 92.260,11.508 L91.005,11.507 L91.074,35.779 C91.124,53.394 91.090,60.543 90.951,61.276 C90.501,63.675 88.754,65.990 86.602,67.035 C85.563,67.540 83.657,67.983 82.523,67.983 C78.719,67.983 75.031,65.380 73.947,61.927 C73.602,60.839 73.602,60.375 73.602,36.063 L73.602,11.508 L72.624,11.508 C72.616,11.508 72.609,11.508 72.601,11.508 C71.735,11.508 71.224,11.503 70.969,10.908 C70.744,10.383 70.744,9.384 70.744,7.394 C70.744,4.310 70.744,4.124 71.191,3.810 L71.192,3.809 C71.562,3.554 72.362,3.512 82.523,3.512 C92.969,3.512 93.542,3.599 93.710,3.764 C93.889,3.941 93.964,4.505 93.964,7.543 L93.964,8.117 C93.967,10.129 93.968,10.882 93.596,11.248 ZM75.137,60.550 C75.587,63.138 77.466,65.203 80.161,66.069 C82.859,66.935 85.721,66.330 87.641,64.487 C88.569,63.602 89.342,62.088 89.520,60.803 C89.584,60.326 89.635,48.983 89.602,35.614 L89.536,11.507 L75.138,11.507 L75.138,21.663 L80.956,21.584 C83.885,21.525 87.109,21.532 87.422,21.644 C87.781,21.769 87.886,21.975 87.879,22.301 C87.876,22.452 87.792,22.886 87.157,22.886 C84.261,22.886 75.141,22.970 75.139,22.967 L75.139,34.799 C75.139,41.251 75.089,49.587 75.056,53.189 C75.006,57.122 75.037,59.942 75.137,60.550 ZM92.595,5.031 L72.115,5.031 L72.115,9.990 L92.391,9.990 L92.496,8.627 C92.544,7.827 92.595,6.626 92.595,5.983 L92.595,5.031 ZM81.263,39.876 C81.613,39.695 82.052,39.558 82.287,39.558 C82.983,39.558 83.908,40.310 84.189,41.105 C84.419,41.753 84.410,41.918 84.097,42.568 C83.712,43.343 82.987,43.808 82.247,43.808 C82.068,43.808 81.887,43.781 81.710,43.724 C80.832,43.441 80.223,42.685 80.157,41.799 C80.097,40.976 80.521,40.240 81.263,39.876 ZM81.733,42.045 C81.867,42.253 82.088,42.380 82.187,42.380 C82.498,42.380 82.694,42.173 82.773,41.980 C82.852,41.786 82.857,41.504 82.633,41.291 L82.631,41.288 C82.497,41.156 82.354,41.087 82.217,41.087 C82.202,41.087 82.189,41.088 82.175,41.090 C82.014,41.106 81.860,41.216 81.732,41.411 C81.523,41.729 81.523,41.729 81.733,42.045 ZM83.573,37.786 C82.867,37.106 82.571,36.060 82.838,35.182 C83.084,34.345 83.669,33.635 84.364,33.328 L84.368,33.326 C85.195,32.978 86.076,33.046 86.792,33.511 C87.504,33.976 87.913,34.750 87.913,35.633 C87.913,36.441 87.594,37.086 86.848,37.788 C86.354,38.259 86.124,38.336 85.212,38.336 C84.309,38.336 84.064,38.253 83.573,37.786 ZM84.382,36.383 C84.621,36.813 84.770,36.901 85.262,36.901 C85.679,36.901 86.073,36.601 86.267,36.139 C86.463,35.670 86.394,35.175 86.092,34.878 C85.907,34.694 85.687,34.598 85.457,34.598 C85.445,34.598 85.433,34.598 85.419,34.598 C85.134,34.612 84.845,34.770 84.611,35.048 C84.186,35.544 84.127,35.881 84.382,36.383 ZM56.598,62.495 C51.582,65.499 45.727,65.921 40.540,63.647 L39.262,63.087 L36.620,64.689 C34.837,65.757 34.023,66.187 33.482,66.187 C33.333,66.187 33.204,66.155 33.085,66.094 C32.760,65.919 31.465,65.162 30.213,64.377 C28.015,63.024 27.980,63.043 27.340,63.314 C24.147,64.627 22.882,64.911 20.205,64.911 C15.593,64.911 12.260,63.498 8.700,60.032 C5.719,57.112 3.926,54.354 1.849,49.490 C0.149,45.435 -0.209,43.410 0.649,42.715 C1.274,42.200 7.939,42.543 11.598,43.043 C18.225,43.936 24.017,47.312 26.713,51.848 C27.802,53.636 28.659,56.862 28.659,59.189 L28.659,60.763 L30.767,62.025 C31.724,62.587 32.377,62.959 32.736,63.154 C32.766,62.475 32.799,60.887 32.799,58.699 L32.799,53.998 L31.256,53.023 C23.102,47.806 19.380,35.324 22.599,23.987 C24.368,17.768 26.653,13.340 31.338,7.071 L31.342,7.067 C33.542,4.196 33.950,4.196 34.124,4.196 C35.898,4.196 40.208,10.161 42.733,15.295 C45.541,21.026 46.261,24.002 46.235,29.766 C46.207,36.006 45.446,39.517 43.097,44.212 C41.307,47.852 39.576,50.122 36.913,52.303 L34.928,53.950 L34.928,58.569 C34.928,60.712 34.978,62.277 35.025,62.917 C35.320,62.751 35.889,62.429 36.589,61.999 L38.270,60.963 L38.415,59.165 C39.246,49.457 47.659,43.425 60.372,43.425 C62.533,43.425 67.395,43.716 67.759,44.575 C68.207,45.741 65.927,51.404 63.901,54.784 C62.391,57.326 58.637,61.291 56.598,62.495 ZM26.405,58.291 C25.970,54.832 24.808,52.432 22.522,50.275 C19.542,47.436 15.874,45.801 10.978,45.136 C9.530,44.953 6.974,44.723 5.278,44.622 L2.562,44.463 L2.670,44.961 C2.769,45.433 3.325,46.995 3.883,48.374 C7.010,56.135 11.359,60.856 16.809,62.407 C18.884,63.007 23.017,62.825 24.713,62.060 C25.174,61.864 25.463,61.722 25.577,61.634 C25.569,61.628 25.562,61.619 25.552,61.612 C25.368,61.453 22.867,59.866 19.798,58.005 C17.124,56.382 14.206,54.553 13.949,54.300 C13.652,54.026 13.570,53.568 13.742,53.142 C13.908,52.726 14.272,52.459 14.671,52.459 C15.130,52.459 20.149,55.530 20.720,55.881 C23.686,57.701 26.008,59.069 26.498,59.327 C26.500,59.064 26.437,58.542 26.405,58.291 ZM34.932,35.437 L35.044,39.313 L36.340,38.109 C38.139,36.460 38.764,36.412 39.107,36.561 C39.287,36.639 39.501,36.834 39.501,37.329 C39.501,37.858 37.736,39.652 37.117,40.238 L34.932,42.398 L35.049,51.107 L35.980,50.308 C37.958,48.610 39.757,46.152 41.186,43.198 C43.313,38.815 44.031,35.425 44.031,29.766 C44.031,24.432 43.281,21.561 40.380,15.799 C39.191,13.451 37.772,11.133 36.488,9.441 C35.430,8.065 34.626,7.113 34.357,6.846 C33.577,7.372 29.603,13.077 27.745,16.829 C26.280,19.774 24.638,24.478 24.086,27.316 C23.640,29.669 23.576,34.313 23.957,36.693 C24.353,39.069 25.399,42.117 26.618,44.454 C27.691,46.522 30.885,50.146 32.411,51.027 L32.801,51.250 L32.801,47.755 C32.801,45.523 32.721,43.405 32.650,43.000 C32.536,42.451 31.997,41.892 30.135,40.406 C27.577,38.413 27.685,38.119 27.651,38.023 C27.403,37.330 28.062,36.751 28.773,36.973 C29.172,37.098 31.094,38.464 31.114,38.480 L32.540,39.554 L32.540,35.907 C32.540,32.477 32.639,31.179 33.202,30.729 C33.495,30.494 33.844,30.532 34.081,30.580 C34.783,30.694 34.796,31.054 34.932,35.437 ZM65.278,46.089 C65.249,46.034 65.145,45.987 64.930,45.936 C63.615,45.658 58.266,45.558 56.622,45.785 C51.269,46.534 47.073,48.309 44.485,50.918 C42.623,52.783 41.029,55.844 40.695,58.197 C40.619,58.742 40.576,59.204 40.557,59.504 C41.404,59.047 43.690,57.717 46.567,55.986 C49.547,54.184 52.982,52.119 53.118,52.051 C53.219,51.999 53.327,51.973 53.443,51.973 C53.596,51.973 53.758,52.019 53.915,52.111 C54.273,52.324 54.515,52.731 54.515,53.124 C54.515,53.742 53.937,54.221 47.826,57.902 L46.884,58.466 C44.016,60.183 41.945,61.426 41.938,61.796 C42.020,61.971 42.994,62.194 43.856,62.392 L44.373,62.510 C47.179,63.172 48.110,63.175 50.612,62.538 C54.021,61.669 55.754,60.679 58.344,58.119 C60.934,55.560 62.753,52.833 64.238,49.280 C64.957,47.528 65.416,46.359 65.278,46.089 Z"/>
</svg>

<svg xmlns="http://www.w3.org/2000/svg" width="94" height="68"><path fill-rule="evenodd" fill="#84AB31" d="M93.6 11.25c-.28.26-.66.27-1.34.26h-1.26l.07 24.27c.05 17.61.02 24.76-.12 25.5a8.4 8.4 0 0 1-4.35 5.75c-1.04.51-2.94.95-4.08.95-3.8 0-7.49-2.6-8.57-6.05-.35-1.1-.35-1.55-.35-25.87v-24.55h-1c-.86 0-1.38 0-1.63-.6-.23-.53-.23-1.53-.23-3.52 0-3.08 0-3.27.45-3.58.37-.26 1.17-.3 11.33-.3 10.45 0 11.02.09 11.19.25.18.18.25.75.25 3.78v.58c0 2 0 2.76-.36 3.13Zm-18.46 49.3a7.11 7.11 0 0 0 5.02 5.52c2.7.87 5.56.26 7.48-1.58.93-.89 1.7-2.4 1.88-3.69.06-.47.12-11.82.08-25.19l-.06-24.1h-14.4v10.15l5.82-.08c2.93-.05 6.15-.05 6.46.06.36.13.47.34.46.66 0 .15-.09.59-.72.59-2.9 0-12.02.08-12.02.08v11.83c0 6.45-.05 14.79-.08 18.39a86 86 0 0 0 .08 7.36Zm17.45-55.52h-20.48v4.96h20.28l.1-1.36c.05-.8.1-2 .1-2.65v-.95Zm-11.33 34.85c.35-.19.8-.32 1.03-.32.7 0 1.62.75 1.9 1.54.23.65.22.82-.1 1.47a2.12 2.12 0 0 1-1.84 1.24 2.2 2.2 0 0 1-2.09-2 1.95 1.95 0 0 1 1.1-1.93Zm.47 2.16c.14.21.36.34.46.34.3 0 .5-.2.58-.4a.61.61 0 0 0-.14-.69.61.61 0 0 0-.41-.2h-.05c-.16.02-.31.13-.44.32-.2.32-.2.32 0 .64Zm1.84-4.25c-.7-.68-1-1.73-.73-2.6.24-.84.83-1.55 1.52-1.86a2.58 2.58 0 0 1 2.43.18 2.48 2.48 0 0 1 1.12 2.12c0 .81-.32 1.46-1.06 2.16-.5.47-.73.55-1.64.55-.9 0-1.15-.09-1.64-.55Zm.81-1.4c.24.42.39.51.88.51.42 0 .81-.3 1-.76.2-.47.13-.97-.17-1.26a.9.9 0 0 0-.63-.28h-.04c-.29.01-.58.17-.8.45-.43.5-.5.83-.24 1.33Zm-27.78 26.1a17.36 17.36 0 0 1-16.06 1.16l-1.28-.56-2.64 1.6c-1.78 1.07-2.6 1.5-3.14 1.5a.85.85 0 0 1-.4-.1c-.32-.17-1.61-.93-2.87-1.71-2.2-1.36-2.23-1.34-2.87-1.07-3.2 1.32-4.46 1.6-7.14 1.6-4.6 0-7.94-1.41-11.5-4.88-2.98-2.92-4.77-5.68-6.85-10.54-1.7-4.05-2.06-6.08-1.2-6.77.62-.52 7.29-.18 10.95.32 6.63.9 12.42 4.27 15.11 8.8a16.36 16.36 0 0 1 1.95 7.35v1.57l2.1 1.27c.96.56 1.62.93 1.98 1.12.03-.67.06-2.26.06-4.45v-4.7l-1.54-.98c-8.16-5.21-11.88-17.7-8.66-29.03 1.77-6.22 4.05-10.65 8.74-16.92 2.2-2.87 2.61-2.87 2.78-2.87 1.78 0 6.09 5.96 8.61 11.1 2.81 5.73 3.53 8.7 3.5 14.47-.02 6.24-.78 9.75-3.13 14.44-1.8 3.64-3.52 5.91-6.19 8.1l-1.98 1.64v4.62c0 2.14.05 3.7.1 4.35l1.56-.92 1.68-1.04.14-1.8c.84-9.7 9.25-15.73 21.96-15.73 2.16 0 7.02.29 7.39 1.15.45 1.16-1.83 6.82-3.86 10.2-1.5 2.55-5.26 6.51-7.3 7.71Zm-30.2-4.2c-.43-3.46-1.6-5.86-3.88-8.02-2.98-2.83-6.65-4.47-11.54-5.13-1.45-.19-4-.42-5.7-.52l-2.72-.16.11.5c.1.47.66 2.03 1.21 3.41 3.13 7.77 7.48 12.49 12.93 14.04 2.07.6 6.2.42 7.9-.35.46-.2.75-.34.87-.43l-.03-.02c-.18-.16-2.68-1.74-5.75-3.6-2.68-1.63-5.6-3.46-5.85-3.71-.3-.27-.38-.73-.2-1.16.16-.41.52-.68.92-.68.46 0 5.48 3.07 6.05 3.42a184 184 0 0 0 5.78 3.45c0-.27-.06-.79-.1-1.04Zm8.53-22.85.11 3.87 1.3-1.2c1.8-1.65 2.42-1.7 2.77-1.55.18.08.4.27.4.77 0 .53-1.77 2.32-2.4 2.9l-2.18 2.17.12 8.7.93-.8a22 22 0 0 0 5.2-7.1c2.13-4.39 2.85-7.78 2.85-13.43 0-5.34-.75-8.2-3.65-13.97a43.7 43.7 0 0 0-3.9-6.36 36.3 36.3 0 0 0-2.12-2.6c-.78.53-4.76 6.24-6.61 9.99a49.86 49.86 0 0 0-3.66 10.49c-.45 2.35-.51 7-.13 9.37a28.5 28.5 0 0 0 2.66 7.76c1.07 2.07 4.27 5.7 5.8 6.58l.38.22v-3.5c0-2.23-.08-4.34-.15-4.75-.11-.55-.65-1.1-2.51-2.6-2.56-1.99-2.46-2.28-2.49-2.38-.25-.69.41-1.27 1.12-1.05.4.13 2.32 1.5 2.34 1.51l1.43 1.07v-3.64c0-3.43.1-4.73.66-5.18.3-.24.64-.2.88-.15.7.11.72.47.85 4.86Zm30.35 10.65c-.03-.06-.14-.1-.35-.15a45.1 45.1 0 0 0-8.3-.16c-5.36.75-9.56 2.53-12.15 5.14a14.49 14.49 0 0 0-3.78 7.28c-.08.54-.12 1-.14 1.3.84-.45 3.13-1.78 6-3.51a789.5 789.5 0 0 1 6.56-3.94.7.7 0 0 1 .32-.08c.16 0 .32.05.48.14.35.21.6.62.6 1.01 0 .62-.58 1.1-6.7 4.78l-.94.57c-2.86 1.71-4.94 2.96-4.94 3.33.08.17 1.05.4 1.92.6l.51.11c2.8.66 3.74.66 6.24.03 3.41-.87 5.14-1.86 7.73-4.42a25.85 25.85 0 0 0 5.9-8.84c.72-1.75 1.18-2.92 1.04-3.2Z"/></svg>
